www/assets/icons/euro.svg

<svg xmlns="http://www.w3.org/2000/svg" width="24" height="24" viewBox="0 0 24 24" fill='currentColor'><path d="M15.5 18.5A6.48 6.48 0 0 1 9.74 15h5.76l1-2H9.08c-.05-.33-.08-.66-.08-1s.03-.67.08-1h6.42l1-2H9.74a6.49 6.49 0 0 1 5.76-3.5c1.61 0 3.09.59 4.23 1.57L21.5 5.3a8.96 8.96 0 0 0-6-2.3c-3.92 0-7.24 2.51-8.48 6H3.5l-1 2h4.06a8.3 8.3 0 0 0 0 2H3.5l-1 2h4.52c1.24 3.49 4.56 6 8.48 6 2.31 0 4.41-.87 6-2.3l-1.78-1.77c-1.13.98-2.6 1.57-4.22 1.57"/></svg>

<svg width="24" height="24" viewBox="0 0 24 24" xmlns="http://www.w3.org/2000/svg" fill='currentColor'><path d="M15.5 18.5C12.99 18.5 10.82 17.08 9.74 15H15.5L16.5 13H9.08C9.03 12.67 9 12.34 9 12C9 11.66 9.03 11.33 9.08 11H15.5L16.5 9H9.74C10.82 6.92 13 5.5 15.5 5.5C17.11 5.5 18.59 6.09 19.73 7.07L21.5 5.3C19.91 3.87 17.8 3 15.5 3C11.58 3 8.26 5.51 7.02 9H3.5L2.5 11H6.56C6.52 11.33 6.5 11.66 6.5 12C6.5 12.34 6.52 12.67 6.56 13H3.5L2.5 15H7.02C8.26 18.49 11.58 21 15.5 21C17.81 21 19.91 20.13 21.5 18.7L19.72 16.93C18.59 17.91 17.12 18.5 15.5 18.5Z"/></svg>
